X: 17568
T: Ho Da Lo La Lo
R: strathspey
M: 4/4
K: Aminor
AAAA A2 A2|G2 A2 c2B2|cB A2D2E2|e4 A4|
cccc c2 BA|d2 cc cBAA|cB c2 A2 c2|a4 B4|
g^f g2 B2 a2|A2 AA A2 A2|BA G2 D2 E2|e4 A4:|

